X: 1
T: John Kelly's
D: The Real Reels Of Ireland
M: 4/4
L: 1/8
R: reel
K: Gmaj
~G3F GABG|AGEF GABc|d2Bd g~d3|egdB AcBA|
DEGA ~B2GB|AGEF GABc|d2Bd gedB|1 cAFA GDEF:|2 cAFA GABd||
|:egfg edBd|~d2gd B3d|c2cA ~B2dB|cBAG FDEF|
~G3F GABG|AGEF GABc|d2Bd gedB|1 cAFA GABd:|2 cAFA GDEF||
